X: 1
T: Only the Leaf of a Rosebud
O: Australia, Ireland
R: waltz
Z: 2014 John Chambers <jc:trillian.mit.edu>
S: http://www.kangaroovalleyfolkfestival.com.au/USERIMAGES/Bush%20Dance%2014-05-03.pdf
M: 3/4
L: 1/4
K: D
|:\
"D"F G B | A3 | F G B | A2 d | f e d | "A7"c d c | G3- | G3 |
"A7"E F G | c3 | E A B | c2 B/c/ | "G"d c B/c/ | d c B | "D"F3- | F2 A ||
"D"f> Af/A/ | f g f | "Em"e3 | B3 | "A7"c2 d | e2 c | "D"A3- | A3 |
"D"f> Af/A/ | f g f | "Em"e3 | B2 d | "A7"c B c | g f e | "D"d3- | d3 |]
